!!!!SEGMENT: pl-wtm--r-1690--008_stefani-jozef--oj-zoneczka-no-7.krn
!!!cenid: 18xx:2314
!!!COM: Stefani, Józef
!!!COM-rismID: pe30024097
!!!CDT: 1800/04/16-1876/03/19
!!!CNT: Polish
!!!OPR: Oj żoneczka
!!!OTL: No. 7
!!!OMV: 008
!!!PDT:
!!!AGN: Secular
!!!SMS-siglum: PL-Wtm
!!!SMS-shelfmark: R 1690
!!!SMS-shelfwork: 001-008 M
!!!SMS-variant:
!!!SMS-altvar:
!!!NIFC-rismSourceID: 1001114714
!!!NIFC-rismChildID: 1001114714
!!!NIFC-islandoraID: pl-wtm:28053
!!!URL-pdf-islandora: https://repozytorium.nifc.pl/islandora/object/pl-wtm%3A28053/datastream/PDF/view
!!!URL-scan: https://polish.musicsources.pl/pl/lokalizacje/galeria/rekopisy/6430 @EN{Scan on Polish Music Sources Website} @PL{Skany w portalu Dziedzictwo Muzyki Polskiej w otwartym dostępie}
!!!IIIF:
!!!ONB-nifc: UWAGA: skan 0011-0013
!!!OMD: Allegro.
!!!AIN: 1 clars 1 cor 1 flt 1 viola 3 violn 1 vox
!!!key:
**kern	**dynam	**kern	**dynam	**kern	**dynam	**kern	**dynam	**kern	**dynam	**kern	**dynam	**kern	**dynam	**kern	**text
*part8	*part8	*part7	*part7	*part6	*part6	*part5	*part5	*part4	*part4	*part3	*part3	*part2	*part2	*part1	*part1
*staff8	*	*staff7	*	*staff6	*	*staff5	*	*staff4	*	*staff3	*	*staff2	*	*staff1	*staff1
*Ivioln	*	*Iviola	*	*Ivioln	*	*Ivioln	*	*Icor	*	*Iclars	*	*Iflt	*	*Ivox	*
*I"V:C: C:B:	*	*I"Viola	*	*I"V II	*	*I"V I	*	*I"Corni D.	*	*I"Clar: A	*	*I"Fl:	*	*I"Spiew.	*
*I'bc	*	*I'vla	*	*I'vl 2	*	*I'vl 1	*	*I'cor in D	*	*I'cl in A	*	*I'fl	*	*I'V	*
*clefF4	*	*clefC3	*	*clefG2	*	*clefG2	*	*clefG2	*	*clefG2	*	*clefG2	*	*clefG2	*
*	*	*	*	*	*	*	*	*ITrd6c10	*	*ITrd2c3	*	*	*	*	*
*k[f#c#]	*	*k[f#c#]	*	*k[f#c#]	*	*k[f#c#]	*	*k[f#c#]	*	*k[f#c#]	*	*k[f#c#]	*	*k[f#c#]	*
*D:	*	*D:	*	*D:	*	*D:	*	*D:	*	*D:	*	*D:	*	*D:	*
*M6/8	*	*M6/8	*	*M6/8	*	*M6/8	*	*M6/8	*	*M6/8	*	*M6/8	*	*M6/8	*
=1	=1	=1	=1	=1	=1	=1	=1	=1	=1	=1	=1	=1	=1	=1	=1
*	*	*	*	*	*	*	*	*^	*	*	*	*	*	*	*
*	*	*	*	*	*	*	*	*	*	*	*^	*	*	*	*	*
!	!LO:DY:b:rj	!	!LO:DY:b:rj	!	!LO:DY:b:rj	!	!LO:DY:b:rj	!	!	!	!	!	!LO:DY:b:rj	!	!LO:DY:b:rj	!	!
16d\LL	f	16d\LL	f	16dd\LL	f	16ddd\LL	f	4r	4ryy	.	16dd/LL	16dd\LL	f	16ddd\LL	f	2.r	.
16c#\	.	16c#\	.	16cc#\	.	16ccc#\	.	.	.	.	16cc#/	16cc#\	.	16ccc#\	.	.	.
16d\	.	16d\	.	16dd\	.	16ddd\	.	.	.	.	16dd/	16dd\	.	16ddd\	.	.	.
16c#\	.	16c#\	.	16cc#\	.	16ccc#\	.	.	.	.	16cc#/	16cc#\	.	16ccc#\	.	.	.
16d\	.	16d\	.	16dd\	.	16ddd\	.	8r	8ryy	.	16dd/	16dd\	.	16ddd\	.	.	.
16c#\JJ	.	16c#\JJ	.	16cc#\JJ	.	16ccc#\JJ	.	.	.	.	16cc#/JJ	16cc#\JJ	.	16ccc#\JJ	.	.	.
!	!	!	!	!	!	!	!	!	!	!LO:DY:b:rj	!	!	!	!	!	!	!
8d\L	.	8d/L	.	8dd\L	.	8ddd\L	.	8d/L	8d\L	f	8dd/L	8dd\L	.	8ddd\L	.	.	.
8A\	.	8A/	.	8a\	.	8aa\	.	8a/	8a\	.	8a/	8a\	.	8aa\	.	.	.
8F#\J	.	8F#/J	.	8f#\J	.	8ff#\J	.	8f#/J	8f#\J	.	8f#/J	8f#\J	.	8ff#\J	.	.	.
=2	=2	=2	=2	=2	=2	=2	=2	=2	=2	=2	=2	=2	=2	=2	=2	=2	=2
8E\L	.	8E/L	.	8e/L	.	8ee\L	.	8e/L	8e\L	.	8e/L	8e\L	.	8ee\L	.	4r	.
8AA\	.	8c# 8E/	.	8cc# 8e/	.	8aa 8cc#\	.	8e/	8A\	.	8cc#/	8a\	.	8aa\	.	.	.
8AA\J	.	8c#J 8E/	.	8cc#J 8e/	.	8aaJ 8cc#\	.	8e/J	8A\J	.	8cc#/J	8a\J	.	8aa\J	.	8r	.
!	!	!	!	!	!	!	!	!	!	!	!	!	!	!	!	!LO:TX:a:Bi:t=Pani Lambert.	!
8AA/	.	8c# 8E/	.	8cc# 8e/	.	8aa 8cc#\	.	8e/	8A\	.	8cc#/	8a\	.	8aa\	.	4r	.
8r	.	8r	.	8r	.	8r	.	8r	8ryy	.	8r	8ryy	.	8r	.	.	.
8r	.	8r	.	8r	.	8r	.	8r	8ryy	.	8r	8ryy	.	8r	.	8dd\	Je-
*	*	*	*	*	*	*	*	*v	*v	*	*	*	*	*	*	*	*
*	*	*	*	*	*	*	*	*	*	*v	*v	*	*	*	*	*
=3	=3	=3	=3	=3	=3	=3	=3	=3	=3	=3	=3	=3	=3	=3	=3
!	!LO:DY:b:rj	!	!LO:DY:b:rj	!	!LO:DY:b:rj	!	!LO:DY:b:rj	!	!	!	!	!	!	!	!
8D\L	p	8A/L	p	8f#/L	p	8dd\L	p	2.r	.	2.r	.	2.r	.	4dd\	-że-
8r	.	8r	.	8r	.	8r	.	.	.	.	.	.	.	.	.
8D\J	.	8A/J	.	8g/J	.	8ee\J	.	.	.	.	.	.	.	8ee\	-li
8D\L	.	8A/L	.	8f#/L	.	8dd\L	.	.	.	.	.	.	.	4dd\	chce-
8r	.	8r	.	8r	.	8r	.	.	.	.	.	.	.	.	.
8D\J	.	8A/J	.	8e/J	.	8cc#\J	.	.	.	.	.	.	.	8cc#\	-cie
=4	=4	=4	=4	=4	=4	=4	=4	=4	=4	=4	=4	=4	=4	=4	=4
*rep	*	*	*	*	*	*	*	*	*	*	*	*	*	*	*
8D\L	.	8G/L	.	8g/L	.	8b\L	.	2.r	.	2.r	.	2.r	.	8b\	wszy-
8r	.	8r	.	8r	.	8r	.	.	.	.	.	.	.	8b\	-scy
8D\J	.	8A/J	.	8e/J	.	8cc#\J	.	.	.	.	.	.	.	8cc#\	mę-
8D\L	.	8A/L	.	8f#/L	.	8dd\L	.	.	.	.	.	.	.	8dd\	-żo-
8r	.	8r	.	8r	.	8a\	.	.	.	.	.	.	.	16a/	-wie
.	.	.	.	.	.	.	.	.	.	.	.	.	.	16r	.
8D\J	.	8A/J	.	8f#/J	.	8dd\J	.	.	.	.	.	.	.	8dd\	by
*Xrep	*	*	*	*	*	*	*	*	*	*	*	*	*	*	*
=5	=5	=5	=5	=5	=5	=5	=5	=5	=5	=5	=5	=5	=5	=5	=5
*rep	*	*	*	*	*	*	*	*	*	*	*	*	*	*	*
8D\L	.	8A/L	.	8f#/L	.	8dd\L	.	2.r	.	2.r	.	2.r	.	4dd\	po-
8r	.	8r	.	8r	.	8r	.	.	.	.	.	.	.	.	.
8D\J	.	8A/J	.	8g/J	.	8ee\J	.	.	.	.	.	.	.	8ee\	-kój
8D\L	.	8A/L	.	8f#/L	.	8dd\L	.	.	.	.	.	.	.	8dd\	za-
8r	.	8r	.	8r	.	8r	.	.	.	.	.	.	.	8dd\	-wsze
8D\J	.	8A/J	.	8e/J	.	8cc#\J	.	.	.	.	.	.	.	8cc#\	był
*Xrep	*	*	*	*	*	*	*	*	*	*	*	*	*	*	*
=6	=6	=6	=6	=6	=6	=6	=6	=6	=6	=6	=6	=6	=6	=6	=6
*rep	*	*	*	*	*	*	*	*	*	*	*	*	*	*	*
8D\L	.	8G/L	.	8g/L	.	8b\L	.	2.r	.	2.r	.	2.r	.	4b/	w wa-
8r	.	8r	.	8r	.	8r	.	.	.	.	.	.	.	.	.
8D\J	.	8A/J	.	8e/J	.	8cc#\J	.	.	.	.	.	.	.	8cc#/	-szej
8D\L	.	8A/L	.	8f#/L	.	8dd\L	.	.	.	.	.	.	.	8dd/	gło-
8r	.	8r	.	8r	.	8a\	.	.	.	.	.	.	.	8a/	-wie
8D\J	.	8A/J	.	8f#/J	.	8dd\J	.	.	.	.	.	.	.	8r	.
*Xrep	*	*	*	*	*	*	*	*	*	*	*	*	*	*	*
=7	=7	=7	=7	=7	=7	=7	=7	=7	=7	=7	=7	=7	=7	=7	=7
8AA/L	.	8A/L	.	8e/L	.	8cc#\L	.	2.r	.	2.r	.	2.r	.	8cc#/	Czyń-
8r	.	8r	.	8r	.	8r	.	.	.	.	.	.	.	8b/	-cie
8AA/J	.	8E/J	.	8c#/J	.	8a\J	.	.	.	.	.	.	.	8a/	co
8AA/L	.	8F#/L	.	8d/L	.	8a/L	.	.	.	.	.	.	.	8dd/	tyl-
8r	.	8r	.	8r	.	8r	.	.	.	.	.	.	.	8a/	-ko
!LO:TX:b:Bi:t=VS.	!	!	!	!	!	!	!	!	!	!	!	!	!	!	!
8AA/J	.	8F#/J	.	8d/J	.	8a/J	.	.	.	.	.	.	.	8a/	żo-
!!LO:PB:g=original
=8	=8	=8	=8	=8	=8	=8	=8	=8	=8	=8	=8	=8	=8	=8	=8
8AA/L	.	8E/L	.	8c#/L	.	8a/L	.	2.r	.	2.r	.	2.r	.	8cc#/L	-necz-
8r	.	8r	.	8r	.	8r	.	.	.	.	.	.	.	8b/J	.
8AA/J	.	8E/J	.	8c#/J	.	8a/J	.	.	.	.	.	.	.	8a/	-ki
8D/L	.	8F#/L	.	8d/L	.	8a/L	.	.	.	.	.	.	.	8dd/	ży-
8r	.	8r	.	8r	.	8r	.	.	.	.	.	.	.	16a/	-czą
.	.	.	.	.	.	.	.	.	.	.	.	.	.	16r	.
8BB/J	.	8B/J	.	8f#/J	.	8dd/J	.	.	.	.	.	.	.	8dd\	I
=9	=9	=9	=9	=9	=9	=9	=9	=9	=9	=9	=9	=9	=9	=9	=9
8E\L	.	8c#\L	.	8e/L	.	8cc#/L	.	2.r	.	2.r	.	2.r	.	4cc#\	po-
8r	.	8r	.	8r	.	8r	.	.	.	.	.	.	.	.	.
8E\J	.	8e\J	.	8c#/J	.	8a/J	.	.	.	.	.	.	.	8a/	-stę-
8E\L	.	8e\L	.	8d/L	.	8b/L	.	.	.	.	.	.	.	4b/	-puj-
8r	.	8r	.	8r	.	8r	.	.	.	.	.	.	.	.	.
8E\J	.	8e\J	.	8B/J	.	8g#X/J	.	.	.	.	.	.	.	8g#X/	-cie
=10	=10	=10	=10	=10	=10	=10	=10	=10	=10	=10	=10	=10	=10	=10	=10
4E\	.	(<8G#X/L	.	(<8e/L	.	(<8e/L	.	2.r	.	2.r	.	2.r	.	8e/	cią-
.	.	8A/)	.	8d#X/)	.	8f#/)	.	.	.	.	.	.	.	8f#/	-gle
8E\	.	8B'</J	.	8dn'</J	.	8g#X'</J	.	.	.	.	.	.	.	8g#X/	z sło-
(>8E/L	.	(<8G#/L	.	(<8d/L	.	(<8b/L	.	.	.	.	.	.	.	8b/	-dy-
8AA/J)	.	8A/J)	.	8c#/J)	.	8a/)	.	.	.	.	.	.	.	8a/	-czą
8r	.	8r	.	8r	.	8a'</J	.	.	.	.	.	.	.	8r	.
=11	=11	=11	=11	=11	=11	=11	=11	=11	=11	=11	=11	=11	=11	=11	=11
8E\L	.	8G#X/L	.	8e/L	.	8b/L	.	2.r	.	2.r	.	2.r	.	8b/	Iść
8r	.	8r	.	8r	.	8r	.	.	.	.	.	.	.	8b/	za
8E\J	.	8G#/J	.	8e/J	.	8b/J	.	.	.	.	.	.	.	8b/	żon
8AA/L	.	8A/L	.	8e/L	.	8cc#\L	.	.	.	.	.	.	.	4cc#/	wa-
8r	.	8r	.	8r	.	8r	.	.	.	.	.	.	.	.	.
8AA/J	.	8A/J	.	8e/	.	8cc#\J	.	.	.	.	.	.	.	8cc#/	-szych
=12	=12	=12	=12	=12	=12	=12	=12	=12	=12	=12	=12	=12	=12	=12	=12
*rep	*	*rep	*	*rep	*	*rep	*	*	*	*	*	*	*	*	*
8E\L	.	8G#X/L	.	8e/	.	8b/L	.	2.r	.	2.r	.	2.r	.	8dd/	wciąż
8r	.	8r	.	8r	.	8r	.	.	.	.	.	.	.	8cc#/	ży-
8E\J	.	8G#/J	.	8e/J	.	8b/J	.	.	.	.	.	.	.	8b/	-cze-
8AA/L	.	8A/L	.	8e/L	.	8cc#\L	.	.	.	.	.	.	.	8cc#/	-nia-
8r	.	8r	.	8r	.	8r	.	.	.	.	.	.	.	16a/	-mi
.	.	.	.	.	.	.	.	.	.	.	.	.	.	16r	.
8AA/J	.	8A/J	.	8e/	.	8cc#\J	.	.	.	.	.	.	.	8a/	Naj-
*Xrep	*	*Xrep	*	*Xrep	*	*Xrep	*	*	*	*	*	*	*	*	*
=13	=13	=13	=13	=13	=13	=13	=13	=13	=13	=13	=13	=13	=13	=13	=13
*rep	*	*rep	*	*rep	*	*rep	*	*	*	*	*	*	*	*	*
8E\L	.	8G#X/L	.	8e/	.	8b/L	.	2.r	.	2.r	.	2.r	.	4b/	-mniej-
8r	.	8r	.	8r	.	8r	.	.	.	.	.	.	.	.	.
8E\J	.	8G#/J	.	8e/J	.	8b/J	.	.	.	.	.	.	.	8b/	-szej
8AA/L	.	8A/L	.	8e/L	.	8cc#\L	.	.	.	.	.	.	.	8cc#/	chę-
8r	.	8r	.	8r	.	8r	.	.	.	.	.	.	.	8cc#/	-ci
8AA/J	.	8A/J	.	8e/J	.	8cc#\J	.	.	.	.	.	.	.	8cc#/	do-
*Xrep	*	*Xrep	*	*Xrep	*	*Xrep	*	*	*	*	*	*	*	*	*
=14	=14	=14	=14	=14	=14	=14	=14	=14	=14	=14	=14	=14	=14	=14	=14
8AA/L	.	8F#/L	.	8d/L	.	8dd\L	.	2.r	.	2.r	.	2.r	.	8dd\L	-go-
8r	.	8r	.	8r	.	8r	.	.	.	.	.	.	.	8cc#\J	.
8AA/J	.	8A/J	.	8f#/J	.	8dd\J	.	.	.	.	.	.	.	8dd\	-dzić
8AA/	.	8c#/	.	8a/	.	8ee\	.	.	.	.	.	.	.	8ee\	u-
8r;>	.	8r;>	.	8r;>	.	8r;>	.	.	.	.	.	.	.	16ee\	-mieć
.	.	.	.	.	.	.	.	.	.	.	.	.	.	16r;>	.
8r	.	8r	.	8r	.	8r	.	.	.	.	.	.	.	8dd\	A
!!LO:LB:g=original
=15	=15	=15	=15	=15	=15	=15	=15	=15	=15	=15	=15	=15	=15	=15	=15
8D\L	.	8A/L	.	8f#/L	.	8dd\L	.	2.r	.	2.r	.	2.r	.	4dd\	zo-
8r	.	8r	.	8r	.	8r	.	.	.	.	.	.	.	.	.
8D\J	.	8A/J	.	8g/J	.	8ee\J	.	.	.	.	.	.	.	8ee\	-ba-
8D\L	.	8A/L	.	8f#/L	.	8dd\L	.	.	.	.	.	.	.	8dd\	-czy-
8r	.	8r	.	8r	.	8r	.	.	.	.	.	.	.	8dd\	-cie
8D\J	.	8A/J	.	8e/J	.	8cc#\J	.	.	.	.	.	.	.	8cc#\	Że
=16	=16	=16	=16	=16	=16	=16	=16	=16	=16	=16	=16	=16	=16	=16	=16
8D\L	.	8G/L	.	8g/L	.	8b/L	.	2.r	.	2.r	.	2.r	.	4b\	do-
8r	.	8r	.	8r	.	8r	.	.	.	.	.	.	.	.	.
8D\J	.	8A/J	.	8e/J	.	8cc#/J	.	.	.	.	.	.	.	8cc#\	-brze
8D\L	.	8A/L	.	8f#/L	.	8dd/L	.	.	.	.	.	.	.	8dd\	z na-
8r	.	8r	.	8r	.	8a/	.	.	.	.	.	.	.	16a/	-mi
.	.	.	.	.	.	.	.	.	.	.	.	.	.	16r	.
8D\J	.	8A/J	.	8f#/J	.	8a/J	.	.	.	.	.	.	.	8a/	Że
=17	=17	=17	=17	=17	=17	=17	=17	=17	=17	=17	=17	=17	=17	=17	=17
8G\L	.	8G/L	.	8g/L	.	8b\L	.	2.r	.	2.r	.	2.r	.	8b/	trze-
8r	.	8r	.	8r	.	8r	.	.	.	.	.	.	.	8b/	-ba
8G\J	.	8d/J	.	8g/J	.	8b\J	.	.	.	.	.	.	.	8b/	się
8E\L	.	8e\L	.	8g/L	.	8ee\L	.	.	.	.	.	.	.	4ee\	tyl-
8r	.	8r	.	8r	.	8r	.	.	.	.	.	.	.	.	.
8E\J	.	8e\J	.	8g/J	.	8dd\J	.	.	.	.	.	.	.	8dd\	-ko
=18	=18	=18	=18	=18	=18	=18	=18	=18	=18	=18	=18	=18	=18	=18	=18
8A\L	.	8e\L	.	8g/L	.	8cc#\L	.	2.r	.	2.r	.	2.r	.	8cc#\L	po-
8r	.	8r	.	8r	.	8r	.	.	.	.	.	.	.	8b\J	.
8A\J	.	8e\J	.	8g/J	.	8cc#\J	.	.	.	.	.	.	.	8cc#\	-ro-
8A\L	.	8c#\L	.	8g/L	.	8ee\L	.	.	.	.	.	.	.	8ee\	-zu-
8D\J	.	8d\J	.	8f#/J	.	8dd\J	.	.	.	.	.	.	.	8dd\	-mieć
8r	.	8r	.	8r	.	8r	.	.	.	.	.	.	.	8r	.
=19	=19	=19	=19	=19	=19	=19	=19	=19	=19	=19	=19	=19	=19	=19	=19
*	*	*	*	*	*	*	*	*^	*	*	*	*	*	*	*
*	*	*	*	*	*	*	*	*	*	*	*^	*	*	*	*	*
!	!LO:DY:b:rj	!	!LO:DY:b:rj	!	!LO:DY:b:rj	!	!LO:DY:b:rj	!	!	!	!	!	!LO:DY:b:rj	!	!LO:DY:b:rj	!	!
16d\LL	f	16d\LL	f	16dd\LL	f	16ddd\LL	f	4r	4ryy	.	16dd/LL	16dd\LL	f	16ddd\LL	f	2.r	.
16c#\	.	16c#\	.	16cc#\	.	16ccc#\	.	.	.	.	16cc#/	16cc#\	.	16ccc#\	.	.	.
16d\	.	16d\	.	16dd\	.	16ddd\	.	.	.	.	16dd/	16dd\	.	16ddd\	.	.	.
16c#\	.	16c#\	.	16cc#\	.	16ccc#\	.	.	.	.	16cc#/	16cc#\	.	16ccc#\	.	.	.
16d\	.	16d\	.	16dd\	.	16ddd\	.	8r	8ryy	.	16dd/	16dd\	.	16ddd\	.	.	.
16c#\JJ	.	16c#\JJ	.	16cc#\JJ	.	16ccc#\JJ	.	.	.	.	16cc#/JJ	16cc#\JJ	.	16ccc#\JJ	.	.	.
!	!	!	!	!	!	!	!	!	!	!LO:DY:b:rj	!	!	!	!	!	!	!
8d\L	.	8d\L	.	8dd\L	.	8ddd\L	.	8d/L	8d\L	f	8dd/L	8dd\L	.	8ddd\L	.	.	.
8A\	.	8A\	.	8a\	.	8aa\	.	8a/	8a\	.	8a/	8a\	.	8aa\	.	.	.
8F#\J	.	8F#\J	.	8f#\J	.	8ff#\J	.	8f#/J	8f#\J	.	8f#/J	8f#\J	.	8ff#\J	.	.	.
=20	=20	=20	=20	=20	=20	=20	=20	=20	=20	=20	=20	=20	=20	=20	=20	=20	=20
8E\L	.	8E/L	.	8e\L	.	8ee\L	.	8e/L	8e\L	.	8e/L	8e\L	.	8ee\L	.	2.r	.
8AA\	.	8c# 8E/	.	8cc# 8e\	.	8aa 8cc#\	.	8e/	8A\	.	8cc#/	8a\	.	8aa\	.	.	.
8AA\J	.	8c#J 8E/	.	8cc#J 8e\	.	8aaJ 8cc#\	.	8e/J	8A\J	.	8cc#/J	8a\J	.	8aa\J	.	.	.
8AA/	.	8c# 8E/	.	8cc# 8e\	.	8aa 8cc#\	.	8e/	8A\	.	8cc#/	8a\	.	8aa\	.	.	.
8r	.	8r	.	8r	.	8r	.	8r	8ryy	.	8r	8ryy	.	8r	.	.	.
8r	.	8r	.	8r	.	8r	.	8r	8ryy	.	8r	8ryy	.	8r	.	.	.
*	*	*	*	*	*	*	*	*v	*v	*	*	*	*	*	*	*	*
*	*	*	*	*	*	*	*	*	*	*v	*v	*	*	*	*	*
=21	=21	=21	=21	=21	=21	=21	=21	=21	=21	=21	=21	=21	=21	=21	=21
!	!	!	!	!	!	!	!	!	!	!	!	!	!	!LO:TX:a:Bi:t=Saturnin:rj	!
!	!LO:DY:b:rj	!	!LO:DY:b:rj	!	!LO:DY:b:rj	!	!LO:DY:b:rj	!	!	!	!	!	!	!	!
8D\L	p	8A/L	p	8f#/L	p	8dd\L	p	2.r	.	2.r	.	2.r	.	8dd\	Żo-
8r	.	8r	.	8r	.	8r	.	.	.	.	.	.	.	8dd\	-na
8D\J	.	8A/J	.	8g/J	.	8ee\J	.	.	.	.	.	.	.	8ee\	sta-
8D\L	.	8A/L	.	8f#/L	.	8dd\L	.	.	.	.	.	.	.	4dd\	-re-
8r	.	8r	.	8r	.	8r	.	.	.	.	.	.	.	.	.
8D\J	.	8A/J	.	8e/J	.	8cc#\J	.	.	.	.	.	.	.	8cc#\	-go
=22	=22	=22	=22	=22	=22	=22	=22	=22	=22	=22	=22	=22	=22	=22	=22
*rep	*	*	*	*	*	*	*	*	*	*	*	*	*	*	*
8D\L	.	8G/L	.	8g/L	.	8b\L	.	2.r	.	2.r	.	2.r	.	8b\	kup-
8r	.	8r	.	8r	.	8r	.	.	.	.	.	.	.	8b\	-ca
8D\J	.	8A/J	.	8e/J	.	8cc#\J	.	.	.	.	.	.	.	8cc#\	są-
8D\L	.	8A/L	.	8f#/L	.	8dd\L	.	.	.	.	.	.	.	8dd\	-sia-
8r	.	8r	.	8r	.	8a\	.	.	.	.	.	.	.	8a/	-da
8D\J	.	8A/J	.	8f#/J	.	8dd\J	.	.	.	.	.	.	.	8r	.
*Xrep	*	*	*	*	*	*	*	*	*	*	*	*	*	*	*
!!LO:PB:g=original
=23	=23	=23	=23	=23	=23	=23	=23	=23	=23	=23	=23	=23	=23	=23	=23
*rep	*	*	*	*	*	*	*	*	*	*	*	*	*	*	*
8D\L	.	8A/L	.	8f#/L	.	8dd\L	.	2.r	.	2.r	.	2.r	.	8dd\	Wczo-
8r	.	8r	.	8r	.	8r	.	.	.	.	.	.	.	8dd\	-raj
8D\J	.	8A/J	.	8g/J	.	8ee\J	.	.	.	.	.	.	.	8ee\	śli-
8D\L	.	8A/L	.	8f#/L	.	8dd\L	.	.	.	.	.	.	.	8dd\	-czne-
8r	.	8r	.	8r	.	8r	.	.	.	.	.	.	.	8dd\	-go
8D\J	.	8A/J	.	8e/J	.	8cc#\J	.	.	.	.	.	.	.	8cc#\	po-
*Xrep	*	*	*	*	*	*	*	*	*	*	*	*	*	*	*
=24	=24	=24	=24	=24	=24	=24	=24	=24	=24	=24	=24	=24	=24	=24	=24
*rep	*	*	*	*	*	*	*	*	*	*	*	*	*	*	*
8D\L	.	8G/L	.	8g/L	.	8b\L	.	2.r	.	2.r	.	2.r	.	4b\	-wi-
8r	.	8r	.	8r	.	8r	.	.	.	.	.	.	.	.	.
8D\J	.	8A/J	.	8e/J	.	8cc#\J	.	.	.	.	.	.	.	8cc#\	-ła
8D\L	.	8A/L	.	8f#/L	.	8dd\L	.	.	.	.	.	.	.	8dd\	Sy-
8r	.	8r	.	8r	.	8a\	.	.	.	.	.	.	.	8a/	-na
8D\J	.	8A/J	.	8f#/J	.	8dd\J	.	.	.	.	.	.	.	8r	.
*Xrep	*	*	*	*	*	*	*	*	*	*	*	*	*	*	*
=25	=25	=25	=25	=25	=25	=25	=25	=25	=25	=25	=25	=25	=25	=25	=25
8AA/L	.	8A/L	.	8e/L	.	8cc#\L	.	2.r	.	2.r	.	2.r	.	8cc#/	A-
8r	.	8r	.	8r	.	8r	.	.	.	.	.	.	.	8b/	-le
8AA/J	.	8E/J	.	8c#/J	.	8a\J	.	.	.	.	.	.	.	8a/	mi
8AA/L	.	8F#/L	.	8d/L	.	8a/L	.	.	.	.	.	.	.	4dd/	Oj-
8r	.	8r	.	8r	.	8r	.	.	.	.	.	.	.	.	.
8AA/J	.	8F#/J	.	8d/J	.	8a/J	.	.	.	.	.	.	.	8a/	-ciec
=26	=26	=26	=26	=26	=26	=26	=26	=26	=26	=26	=26	=26	=26	=26	=26
8AA/L	.	8E/L	.	8c#/L	.	8a/L	.	2.r	.	2.r	.	2.r	.	8cc#/	z smu-
8r	.	8r	.	8r	.	8r	.	.	.	.	.	.	.	8b/	-tkiem
8AA/J	.	8E/J	.	8c#/J	.	8a/J	.	.	.	.	.	.	.	8a/	po-
8D/L	.	8F#/L	.	8d/L	.	8a/L	.	.	.	.	.	.	.	8dd/	-wia-
8r	.	8r	.	8r	.	8r	.	.	.	.	.	.	.	16a/	-da
.	.	.	.	.	.	.	.	.	.	.	.	.	.	16r	.
8BB/J	.	8B/J	.	8f#/J	.	8dd/J	.	.	.	.	.	.	.	8dd\	że
=27	=27	=27	=27	=27	=27	=27	=27	=27	=27	=27	=27	=27	=27	=27	=27
8E\L	.	8c#\L	.	8e/L	.	8cc#/L	.	2.r	.	2.r	.	2.r	.	4cc#\	Syn
8r	.	8r	.	8r	.	8r	.	.	.	.	.	.	.	.	.
8E\J	.	8e\J	.	8c#/J	.	8a/J	.	.	.	.	.	.	.	8a/	pi-
8E\L	.	8e\L	.	8d/L	.	8b/L	.	.	.	.	.	.	.	4b/	-sa-
8r	.	8r	.	8r	.	8r	.	.	.	.	.	.	.	.	.
8E\J	.	8e\J	.	8B/J	.	8g#X/J	.	.	.	.	.	.	.	8g#X/	-rza
=28	=28	=28	=28	=28	=28	=28	=28	=28	=28	=28	=28	=28	=28	=28	=28
4E\	.	(<8G#X/L	.	(<8e/L	.	(<8e/L	.	2.r	.	2.r	.	2.r	.	8e/	twarz
.	.	8A/)	.	8d#X/)	.	8f#/)	.	.	.	.	.	.	.	8f#/	przy-
8E\	.	8B'</J	.	8dn'</J	.	8g#X'</J	.	.	.	.	.	.	.	8g#X/	-po-
(>8E\L	.	(<8G#/L	.	(<8d/L	.	(<8b/L	.	.	.	.	.	.	.	8b/	-mi-
8AA\J)	.	8A/J)	.	8c#/J)	.	8a/)	.	.	.	.	.	.	.	8a/	-na
8r	.	8r	.	8r	.	8a'</J	.	.	.	.	.	.	.	8r	.
=29	=29	=29	=29	=29	=29	=29	=29	=29	=29	=29	=29	=29	=29	=29	=29
8E\L	.	8G#X/L	.	8e/L	.	8b/L	.	2.r	.	2.r	.	2.r	.	8b/	Wszy-
8r	.	8r	.	8r	.	8r	.	.	.	.	.	.	.	8b/	-scy
8E\J	.	8G#/J	.	8e/J	.	8b/J	.	.	.	.	.	.	.	8b/	z uś-
8AA/L	.	8A/L	.	8e/L	.	8cc#\L	.	.	.	.	.	.	.	4cc#/	-mie-
8r	.	8r	.	8r	.	8r	.	.	.	.	.	.	.	.	.
8AA/J	.	8A/J	.	8e/J	.	8cc#\J	.	.	.	.	.	.	.	8cc#/	-chem
=30	=30	=30	=30	=30	=30	=30	=30	=30	=30	=30	=30	=30	=30	=30	=30
8E\L	.	8G#X/L	.	8e/L	.	8b\L	.	4r	.	4r	.	4r	.	8dd\	głoś-
8r	.	8r	.	8r	.	8r	.	.	.	.	.	.	.	8cc#\	-no
8E\J	.	8G#/J	.	8e/J	.	8b\J	.	8r	.	8r	.	8r	.	8b\	win-
!!LO:LB:g=original
8AA/L	.	8A/L	.	8e/L	.	8cc#\L	.	4r	.	4r	.	4r	.	8cc#/	-szu-
8r	.	8r	.	8r	.	8r	.	.	.	.	.	.	.	8a/	-ją
8AA/J	.	8A/J	.	8e/J	.	8cc#\J	.	8r	.	8r	.	8r	.	8r	.
=31	=31	=31	=31	=31	=31	=31	=31	=31	=31	=31	=31	=31	=31	=31	=31
8E\L	.	8G#X/L	.	8e/L	.	8b/L	.	2.r	.	2.r	.	2.r	.	8b\	To
8r	.	8r	.	8r	.	8r	.	.	.	.	.	.	.	8b\	czy-
8E\J	.	8G#/J	.	8e/J	.	8b/J	.	.	.	.	.	.	.	8b\	-sty
8AA/L	.	8A/L	.	8e/L	.	8cc#\L	.	.	.	.	.	.	.	4cc#\	Pa-
8r	.	8r	.	8r	.	8r	.	.	.	.	.	.	.	.	.
8AA/J	.	8A/J	.	8e/J	.	8cc#\J	.	.	.	.	.	.	.	8cc#\	-pa
=32	=32	=32	=32	=32	=32	=32	=32	=32	=32	=32	=32	=32	=32	=32	=32
8AA/L	.	8F#/L	.	8d/L	.	8dd\L	.	2.r	.	2.r	.	2.r	.	8dd\	trze-
8r	.	8r	.	8r	.	8r	.	.	.	.	.	.	.	8cc#\	-ba
8AA/J	.	8A/J	.	8f#/J	.	8dd\J	.	.	.	.	.	.	.	8dd\	się
8AA/	.	8c#\	.	8a/	.	8ee\	.	.	.	.	.	.	.	8ee\	zdu-
8r;>	.	8r;>	.	8r;>	.	8r;>	.	.	.	.	.	.	.	16ee\	-mieć
.	.	.	.	.	.	.	.	.	.	.	.	.	.	16r;>	.
8r	.	8r	.	8r	.	8r	.	.	.	.	.	.	.	8ee\	Gdy
=33	=33	=33	=33	=33	=33	=33	=33	=33	=33	=33	=33	=33	=33	=33	=33
8D\L	.	8A/L	.	8f#/L	.	8dd\L	.	2.r	.	2.r	.	2.r	.	4dd\	po-
8r	.	8r	.	8r	.	8r	.	.	.	.	.	.	.	.	.
8D\J	.	8A/J	.	8g/J	.	8ee\J	.	.	.	.	.	.	.	8ee\	-do-
8D\L	.	8A/L	.	8f#/L	.	8dd\L	.	.	.	.	.	.	.	4dd\	-bień-
8r	.	8r	.	8r	.	8r	.	.	.	.	.	.	.	.	.
8D\J	.	8A/J	.	8e/J	.	8cc#\J	.	.	.	.	.	.	.	8cc#\	-stwo
=34	=34	=34	=34	=34	=34	=34	=34	=34	=34	=34	=34	=34	=34	=34	=34
*rep	*	*	*	*	*	*	*	*	*	*	*	*	*	*	*
8D\L	.	8G/L	.	8g/L	.	8b/L	.	2.r	.	2.r	.	2.r	.	8b\	ta-
8r	.	8r	.	8r	.	8r	.	.	.	.	.	.	.	8b\	-kie
8D\J	.	8A/J	.	8e/J	.	8cc#/J	.	.	.	.	.	.	.	8cc#\	znaj-
8D\L	.	8A/L	.	8f#/L	.	8dd\L	.	.	.	.	.	.	.	8dd\	-du-
8r	.	8r	.	8r	.	8a\	.	.	.	.	.	.	.	8a/	-ją
8D\J	.	8A/J	.	8f#/J	.	8a\J	.	.	.	.	.	.	.	8r	.
*Xrep	*	*	*	*	*	*	*	*	*	*	*	*	*	*	*
=35	=35	=35	=35	=35	=35	=35	=35	=35	=35	=35	=35	=35	=35	=35	=35
8G\L	.	8G/L	.	8g/L	.	8b\L	.	2.r	.	2.r	.	2.r	.	8b/	Trze-
8r	.	8r	.	8r	.	8r	.	.	.	.	.	.	.	8b/	-ba
8G\J	.	8d/J	.	8g/J	.	8b\J	.	.	.	.	.	.	.	8b/	się
8E\L	.	8e\L	.	8g/L	.	8ee\L	.	.	.	.	.	.	.	4ee\	z żo-
8r	.	8r	.	8r	.	8r	.	.	.	.	.	.	.	.	.
8E\J	.	8e\J	.	8g/J	.	8dd\J	.	.	.	.	.	.	.	8dd\	-ną
=36	=36	=36	=36	=36	=36	=36	=36	=36	=36	=36	=36	=36	=36	=36	=36
8A\L	.	8e\L	.	8g/L	.	8cc#\L	.	2.r	.	2.r	.	2.r	.	8cc#\	w przód
8r	.	8r	.	8r	.	8r	.	.	.	.	.	.	.	8b\	po-
8A\J	.	8e\J	.	8g/J	.	8cc#\J	.	.	.	.	.	.	.	8cc#\	-ro-
8A\L	.	8c#\L	.	8g/L	.	8ee\L	.	.	.	.	.	.	.	8ee\	-zu-
8D\J	.	8d\J	.	8f#/J	.	8dd\J	.	.	.	.	.	.	.	8dd\	-mieć
8r	.	8r	.	8r	.	8r	.	.	.	.	.	.	.	8r	.
=37	=37	=37	=37	=37	=37	=37	=37	=37	=37	=37	=37	=37	=37	=37	=37
*	*	*	*	*	*	*	*	*^	*	*	*	*	*	*	*
*	*	*	*	*	*	*	*	*	*	*	*^	*	*	*	*	*
!	!LO:DY:b:rj	!	!LO:DY:b:rj	!	!LO:DY:b:rj	!	!LO:DY:b:rj	!	!	!	!	!	!LO:DY:b:rj	!	!LO:DY:b:rj	!	!
16d\LL	f	16d\LL	f	16dd\LL	f	16ddd\LL	f	4r	4ryy	.	16dd/LL	16dd\LL	f	16ddd\LL	f	2.r	.
16c#\	.	16c#\	.	16cc#\	.	16ccc#\	.	.	.	.	16cc#/	16cc#\	.	16ccc#\	.	.	.
16d\	.	16d\	.	16dd\	.	16ddd\	.	.	.	.	16dd/	16dd\	.	16ddd\	.	.	.
16c#\	.	16c#\	.	16cc#\	.	16ccc#\	.	.	.	.	16cc#/	16cc#\	.	16ccc#\	.	.	.
16d\	.	16d\	.	16dd\	.	16ddd\	.	8r	8ryy	.	16dd/	16dd\	.	16ddd\	.	.	.
16c#\JJ	.	16c#\JJ	.	16cc#\JJ	.	16ccc#\JJ	.	.	.	.	16cc#/JJ	16cc#\JJ	.	16ccc#\JJ	.	.	.
!	!	!	!	!	!	!	!	!	!	!LO:DY:b:rj	!	!	!	!	!	!	!
8d\L	.	8d\L	.	8dd\L	.	8ddd\L	.	8d/L	8d\L	f	8dd/L	8dd\L	.	8ddd\L	.	.	.
8A\	.	8A\	.	8a\	.	8aa\	.	8a/	8a\	.	8a/	8a\	.	8aa\	.	.	.
!LO:TX:b:Bi:t=VS.	!	!	!	!	!	!	!	!	!	!	!	!	!	!	!	!	!
8F#\J	.	8F#\J	.	8f#\J	.	8ff#\J	.	8f#/J	8f#\J	.	8f#/J	8f#\J	.	8ff#\J	.	.	.
!!LO:PB:g=original
=38	=38	=38	=38	=38	=38	=38	=38	=38	=38	=38	=38	=38	=38	=38	=38	=38	=38
8E\L	.	8E/L	.	8e/L	.	8ee\L	.	8e/L	8e\L	.	8e/L	8e\L	.	8ee\L	.	2.r	.
8AA\	.	8c# 8E/	.	8cc# 8e/	.	8aa 8cc#\	.	8e/	8A\	.	8cc#/	8a\	.	8aa\	.	.	.
8AA\J	.	8c#J 8E/	.	8cc#J 8e/	.	8aaJ 8cc#\	.	8e/J	8A\J	.	8cc#/J	8a\J	.	8aa\J	.	.	.
8AA/	.	8c# 8E/	.	8cc# 8e\	.	8aa 8cc#\	.	8e/	8A\	.	8cc#/	8a\	.	8aa\	.	.	.
8r	.	8r	.	8r	.	8r	.	8r	8ryy	.	8r	8ryy	.	8r	.	.	.
8r	.	8r	.	8r	.	8r	.	8r	8ryy	.	8r	8ryy	.	8r	.	.	.
*	*	*	*	*	*	*	*	*v	*v	*	*	*	*	*	*	*	*
*	*	*	*	*	*	*	*	*	*	*v	*v	*	*	*	*	*
=39	=39	=39	=39	=39	=39	=39	=39	=39	=39	=39	=39	=39	=39	=39	=39
!	!	!	!	!	!	!	!	!	!	!	!	!	!	!LO:TX:a:Bi:t=Anusia.	!
!	!LO:DY:b:rj	!	!LO:DY:b:rj	!	!LO:DY:b:rj	!	!LO:DY:b:rj	!	!	!	!	!	!	!	!
8D\L	p	8A/L	p	8f#/L	p	8dd\L	p	2.r	.	2.r	.	2.r	.	8dd\	Wie-
8r	.	8r	.	8r	.	8r	.	.	.	.	.	.	.	8dd\	-cie
8D\J	.	8A/J	.	8g/J	.	8ee\J	.	.	.	.	.	.	.	8ee\	już
8D\L	.	8A/L	.	8f#/L	.	8dd\L	.	.	.	.	.	.	.	8dd\	do-
8r	.	8r	.	8r	.	8r	.	.	.	.	.	.	.	8dd\	-brze
8D\J	.	8A/J	.	8e/J	.	8cc#\J	.	.	.	.	.	.	.	8cc#\	Pa-
=40	=40	=40	=40	=40	=40	=40	=40	=40	=40	=40	=40	=40	=40	=40	=40
*rep	*	*	*	*	*	*	*	*	*	*	*	*	*	*	*
8D\L	.	8G/L	.	8g/L	.	8b\L	.	2.r	.	2.r	.	2.r	.	4b\	-no-
8r	.	8r	.	8r	.	8r	.	.	.	.	.	.	.	.	.
8D\J	.	8A/J	.	8e/J	.	8cc#\J	.	.	.	.	.	.	.	8cc#\	-wie
8D\L	.	8A/L	.	8f#/L	.	8dd\L	.	.	.	.	.	.	.	8dd\	Pa-
8r	.	8r	.	8r	.	8a\	.	.	.	.	.	.	.	16a/	-nie
.	.	.	.	.	.	.	.	.	.	.	.	.	.	16r	.
8D\J	.	8A/J	.	8f#/J	.	8dd\J	.	.	.	.	.	.	.	8dd\	Co
*Xrep	*	*	*	*	*	*	*	*	*	*	*	*	*	*	*
=41	=41	=41	=41	=41	=41	=41	=41	=41	=41	=41	=41	=41	=41	=41	=41
*rep	*	*	*	*	*	*	*	*	*	*	*	*	*	*	*
8D\L	.	8A/L	.	8f#/L	.	8dd\L	.	2.r	.	2.r	.	2.r	.	4dd\	w no-
8r	.	8r	.	8r	.	8r	.	.	.	.	.	.	.	.	.
8D\J	.	8A/J	.	8g/J	.	8ee\J	.	.	.	.	.	.	.	8ee\	-wych
8D\L	.	8A/L	.	8f#/L	.	8dd\L	.	.	.	.	.	.	.	4dd\	sztu-
8r	.	8r	.	8r	.	8r	.	.	.	.	.	.	.	.	.
8D\J	.	8A/J	.	8e/J	.	8cc#\J	.	.	.	.	.	.	.	8cc#\	-czkach
*Xrep	*	*	*	*	*	*	*	*	*	*	*	*	*	*	*
=42	=42	=42	=42	=42	=42	=42	=42	=42	=42	=42	=42	=42	=42	=42	=42
*rep	*	*	*	*	*	*	*	*	*	*	*	*	*	*	*
8D\L	.	8G/L	.	8g/L	.	8b\L	.	2.r	.	2.r	.	2.r	.	8b\	szczę-
8r	.	8r	.	8r	.	8r	.	.	.	.	.	.	.	8b\	-ście
8D\J	.	8A/J	.	8e/J	.	8cc#\J	.	.	.	.	.	.	.	8cc#\	o-
8D\L	.	8A/L	.	8f#/L	.	8dd\L	.	.	.	.	.	.	.	8dd\	-zna-
8r	.	8r	.	8r	.	8a\	.	.	.	.	.	.	.	8a/	-cza
8D\J	.	8A/J	.	8f#/J	.	8dd\J	.	.	.	.	.	.	.	8r	.
*Xrep	*	*	*	*	*	*	*	*	*	*	*	*	*	*	*
=43	=43	=43	=43	=43	=43	=43	=43	=43	=43	=43	=43	=43	=43	=43	=43
8AA/L	.	8A/L	.	8e/L	.	8cc#\L	.	2.r	.	2.r	.	2.r	.	8cc#\	Jeź-
8r	.	8r	.	8r	.	8r	.	.	.	.	.	.	.	8b\	-li
8AA/J	.	8E/J	.	8c#/J	.	8a\J	.	.	.	.	.	.	.	8a/	zy-
8AA/L	.	8F#/L	.	8d/L	.	8a/L	.	.	.	.	.	.	.	4dd\	-ska-
8r	.	8r	.	8r	.	8r	.	.	.	.	.	.	.	.	.
8AA/J	.	8F#/J	.	8d/J	.	8a/J	.	.	.	.	.	.	.	8a/	-my
=44	=44	=44	=44	=44	=44	=44	=44	=44	=44	=44	=44	=44	=44	=44	=44
8AA/L	.	8E/L	.	8c#/L	.	8a/L	.	2.r	.	2.r	.	2.r	.	8cc#/	choć
8r	.	8r	.	8r	.	8r	.	.	.	.	.	.	.	8b/	po-
8AA/J	.	8E/J	.	8c#/J	.	8a/J	.	.	.	.	.	.	.	8a/	-bła-
8D/L	.	8F#/L	.	8d/L	.	8a/L	.	.	.	.	.	.	.	8dd/	-ża-
8r	.	8r	.	8r	.	8r	.	.	.	.	.	.	.	16a/	-nie
.	.	.	.	.	.	.	.	.	.	.	.	.	.	16r	.
8BB/J	.	8B/J	.	8f#/J	.	8dd/J	.	.	.	.	.	.	.	8dd\	Speł-
=45	=45	=45	=45	=45	=45	=45	=45	=45	=45	=45	=45	=45	=45	=45	=45
8E\L	.	8c#\L	.	8e/L	.	8cc#/L	.	2.r	.	2.r	.	2.r	.	4cc#\	-nio-
8r	.	8r	.	8r	.	8r	.	.	.	.	.	.	.	.	.
8E\J	.	8e\J	.	8c#/J	.	8a/J	.	.	.	.	.	.	.	8a/	-ne
8E\L	.	8e\L	.	8d/L	.	8b/L	.	.	.	.	.	.	.	4b/	wszy-
8r	.	8r	.	8r	.	8r	.	.	.	.	.	.	.	.	.
8E\J	.	8e\J	.	8B/J	.	8g#X/J	.	.	.	.	.	.	.	8g#X/	-stkie
!!LO:LB:g=original
=46	=46	=46	=46	=46	=46	=46	=46	=46	=46	=46	=46	=46	=46	=46	=46
4E\	.	(<8G#X/L	.	(<8e/L	.	(<8e/L	.	2.r	.	2.r	.	2.r	.	8e/	chę-
.	.	8A/)	.	8d#X/)	.	8f#/)	.	.	.	.	.	.	.	8f#/	-ci
8E\	.	8B'</J	.	8dn'</J	.	8g#X'</J	.	.	.	.	.	.	.	8g#X/	tłu-
(>8E\L	.	(<8G#/L	.	(<8d/L	.	(<8b/L	.	.	.	.	.	.	.	8b/	-ma-
8AA\J)	.	8A/J)	.	8c#/J)	.	8a/)	.	.	.	.	.	.	.	16a/	-cza
.	.	.	.	.	.	.	.	.	.	.	.	.	.	16r	.
8r	.	8r	.	8r	.	8a'</J	.	.	.	.	.	.	.	8a/	My
=47	=47	=47	=47	=47	=47	=47	=47	=47	=47	=47	=47	=47	=47	=47	=47
8E\L	.	8G#X/L	.	8e/L	.	8b/L	.	2.r	.	2.r	.	2.r	.	4b/	chce-
8r	.	8r	.	8r	.	8r	.	.	.	.	.	.	.	.	.
8E\J	.	8G#/J	.	8e/J	.	8b/J	.	.	.	.	.	.	.	8b/	-my
8AA/L	.	8A/L	.	8e/L	.	8cc#/L	.	.	.	.	.	.	.	4cc#\	słu-
8r	.	8r	.	8r	.	8r	.	.	.	.	.	.	.	.	.
8AA/J	.	8A/J	.	8e/J	.	8cc#/J	.	.	.	.	.	.	.	8cc#\	-żyć
=48	=48	=48	=48	=48	=48	=48	=48	=48	=48	=48	=48	=48	=48	=48	=48
*rep	*	*rep	*	*rep	*	*rep	*	*	*	*	*	*	*	*	*
8E\L	.	8G#X/L	.	8e/L	.	8b/L	.	2.r	.	2.r	.	2.r	.	8dd\	Wam
8r	.	8r	.	8r	.	8r	.	.	.	.	.	.	.	8cc#\	ku
8E\J	.	8G#/J	.	8e/J	.	8b/J	.	.	.	.	.	.	.	8b\	za-
8AA/L	.	8A/L	.	8e/L	.	8cc#/L	.	.	.	.	.	.	.	8cc#\	-ba-
8r	.	8r	.	8r	.	8r	.	.	.	.	.	.	.	16a/	-wie
.	.	.	.	.	.	.	.	.	.	.	.	.	.	16r	.
8AA/J	.	8A/J	.	8e/J	.	8cc#/J	.	.	.	.	.	.	.	8a/	Wy
*Xrep	*	*Xrep	*	*Xrep	*	*Xrep	*	*	*	*	*	*	*	*	*
=49	=49	=49	=49	=49	=49	=49	=49	=49	=49	=49	=49	=49	=49	=49	=49
*rep	*	*rep	*	*rep	*	*rep	*	*	*	*	*	*	*	*	*
8E\L	.	8G#X/L	.	8e/L	.	8b/L	.	2.r	.	2.r	.	2.r	.	4b/	błę-
8r	.	8r	.	8r	.	8r	.	.	.	.	.	.	.	.	.
8E\J	.	8G#/J	.	8e/J	.	8b/J	.	.	.	.	.	.	.	8b/	-dów
8AA/L	.	8A/L	.	8e/L	.	8cc#/L	.	.	.	.	.	.	.	8cc#/	chciej-
8r	.	8r	.	8r	.	8r	.	.	.	.	.	.	.	8b/	-cie
8AA/J	.	8A/J	.	8e/J	.	8cc#/J	.	.	.	.	.	.	.	8cc#/	za-
*Xrep	*	*Xrep	*	*Xrep	*	*Xrep	*	*	*	*	*	*	*	*	*
=50	=50	=50	=50	=50	=50	=50	=50	=50	=50	=50	=50	=50	=50	=50	=50
8AA/L	.	8F#/L	.	8d/L	.	8dd\L	.	2.r	.	2.r	.	2.r	.	8dd\L	po-
8r	.	8r	.	8r	.	8r	.	.	.	.	.	.	.	8cc#\J	.
8AA/J	.	8A/J	.	8f#/J	.	8dd\J	.	.	.	.	.	.	.	8dd\	-mnieć
8AA/	.	8c#\	.	8a/	.	8ee\	.	.	.	.	.	.	.	8ee\	u-
8r;>	.	8r;>	.	8r;>	.	8r;>	.	.	.	.	.	.	.	16ee\	-mieć
.	.	.	.	.	.	.	.	.	.	.	.	.	.	16r;>	.
8r	.	8r	.	8r	.	8r	.	.	.	.	.	.	.	8dd\	O
=51	=51	=51	=51	=51	=51	=51	=51	=51	=51	=51	=51	=51	=51	=51	=51
8D\L	.	8A/L	.	8f#/L	.	8dd\L	.	2.r	.	2.r	.	2.r	.	4dd\	jed-
8r	.	8r	.	8r	.	8r	.	.	.	.	.	.	.	.	.
8D\J	.	8A/J	.	8g/J	.	8ee\J	.	.	.	.	.	.	.	8ee\	-no
8D\L	.	8A/L	.	8f#/L	.	8dd\L	.	.	.	.	.	.	.	4dd\	bra-
8r	.	8r	.	8r	.	8r	.	.	.	.	.	.	.	.	.
8D\J	.	8A/J	.	8e/J	.	8cc#\J	.	.	.	.	.	.	.	8cc#\	-wo
=52	=52	=52	=52	=52	=52	=52	=52	=52	=52	=52	=52	=52	=52	=52	=52
*rep	*	*	*	*	*	*	*	*	*	*	*	*	*	*	*
8D\L	.	8G/L	.	8g/L	.	8b\L	.	2.r	.	2.r	.	2.r	.	8b\	racz-
8r	.	8r	.	8r	.	8r	.	.	.	.	.	.	.	8b\	-cie
8D\J	.	8A/J	.	8e/J	.	8cc#\J	.	.	.	.	.	.	.	8cc#\	łas-
8D\L	.	8A/L	.	8f#/L	.	8dd\L	.	.	.	.	.	.	.	8dd\	-ka-
8r	.	8r	.	8r	.	8a\	.	.	.	.	.	.	.	16a/	-wie
.	.	.	.	.	.	.	.	.	.	.	.	.	.	16r	.
8D\J	.	8A/J	.	8f#/J	.	8a\J	.	.	.	.	.	.	.	8a/	Ze
*Xrep	*	*	*	*	*	*	*	*	*	*	*	*	*	*	*
!!LO:PB:g=original
=53	=53	=53	=53	=53	=53	=53	=53	=53	=53	=53	=53	=53	=53	=53	=53
8G\L	.	8G/L	.	8g/L	.	8b\L	.	2.r	.	2.r	.	2.r	.	8b/	so-
8r	.	8r	.	8r	.	8r	.	.	.	.	.	.	.	8b/	-bą
8G\J	.	8d/J	.	8g/J	.	8b\J	.	.	.	.	.	.	.	8b/	się
8E\L	.	8e\L	.	8g/L	.	8ee\L	.	.	.	.	.	.	.	4ee\	tyl-
8r	.	8r	.	8r	.	8r	.	.	.	.	.	.	.	.	.
8E\J	.	8e\J	.	8g/J	.	8dd\J	.	.	.	.	.	.	.	8dd\	-ko
=54	=54	=54	=54	=54	=54	=54	=54	=54	=54	=54	=54	=54	=54	=54	=54
8A\L	.	8e\L	.	8g/L	.	8cc#\L	.	2.r	.	2.r	.	2.r	.	8cc#\L	po-
8r	.	8r	.	8r	.	8r	.	.	.	.	.	.	.	8b\J	.
8A\J	.	8e\J	.	8g/J	.	8cc#\J	.	.	.	.	.	.	.	8cc#\	-ro-
8A\L	.	8c#\L	.	8g/L	.	8ee\L	.	.	.	.	.	.	.	8ee\	-zu-
8D\J	.	8d\J	.	8f#/J	.	8dd\J	.	.	.	.	.	.	.	8dd\	-mieć
8r	.	8r	.	8r	.	8r	.	.	.	.	.	.	.	8r	.
=55	=55	=55	=55	=55	=55	=55	=55	=55	=55	=55	=55	=55	=55	=55	=55
*	*	*	*	*	*	*	*	*^	*	*	*	*	*	*	*
*	*	*	*	*	*	*	*	*	*	*	*^	*	*	*	*	*
!	!LO:DY:b:rj	!	!LO:DY:b:rj	!	!LO:DY:b:rj	!	!LO:DY:b:rj	!	!	!	!	!	!LO:DY:b:rj	!	!LO:DY:b:rj	!	!
16d\LL	ff	16d\LL	ff	16dd\LL	ff	16ddd\LL	ff	4r	4ryy	.	16dd/LL	16dd\LL	ff	16ddd\LL	ff	2.r	.
16c#\	.	16c#\	.	16cc#\	.	16ccc#\	.	.	.	.	16cc#/	16cc#\	.	16ccc#\	.	.	.
16d\	.	16d\	.	16dd\	.	16ddd\	.	.	.	.	16dd/	16dd\	.	16ddd\	.	.	.
16c#\	.	16c#\	.	16cc#\	.	16ccc#\	.	.	.	.	16cc#/	16cc#\	.	16ccc#\	.	.	.
16d\	.	16d\	.	16dd\	.	16ddd\	.	8r	8ryy	.	16dd/	16dd\	.	16ddd\	.	.	.
16c#\JJ	.	16c#\JJ	.	16cc#\JJ	.	16ccc#\JJ	.	.	.	.	16cc#/JJ	16cc#\JJ	.	16ccc#\JJ	.	.	.
!	!	!	!	!	!	!	!	!	!	!LO:DY:b:rj	!	!	!	!	!	!	!
8d\L	.	8d\L	.	8dd\L	.	8ddd\L	.	8d/L	8d\L	ff	8dd/L	8dd\L	.	8ddd\L	.	.	.
8A\	.	8A\	.	8a\	.	8aa\	.	8A/	8A\	.	8a/	8a\	.	8aa\	.	.	.
8F#\J	.	8F#\J	.	8f#\J	.	8ff#\J	.	8F#/J	8F#\J	.	8f#/J	8f#\J	.	8ff#\J	.	.	.
=56	=56	=56	=56	=56	=56	=56	=56	=56	=56	=56	=56	=56	=56	=56	=56	=56	=56
16D/LL	.	16d\LL	.	16d/LL	.	16dd\LL	.	8D/	8D\	.	16d/LL	16d\LL	.	16dd\LL	.	2.r	.
16C#/	.	16c#\	.	16c#/	.	16cc#\	.	.	.	.	16c#/	16c#\	.	16cc#\	.	.	.
16D/	.	16d\	.	16d/	.	16dd\	.	8r	8ryy	.	16d/	16d\	.	16dd\	.	.	.
16C#/	.	16c#\	.	16c#/	.	16cc#\	.	.	.	.	16c#/	16c#\	.	16cc#\	.	.	.
16D/	.	16d\	.	16d/	.	16dd\	.	8r	8ryy	.	16d/	16d\	.	16dd\	.	.	.
16C#/JJ	.	16c#\JJ	.	16c#/JJ	.	16cc#\JJ	.	.	.	.	16c#/JJ	16c#\JJ	.	16cc#\JJ	.	.	.
8D\L	.	8d\L	.	8d/L	.	8dd\L	.	8D/L	8D\L	.	8d/L	8d\L	.	8dd\L	.	.	.
8F#\	.	8F#\	.	8f#/	.	8ff#\	.	8F#/	8F#\	.	8f#/	8f#\	.	8ff#\	.	.	.
8A\J	.	8A\J	.	8a/J	.	8aa\J	.	8A/J	8A\J	.	8a/J	8a\J	.	8aa\J	.	.	.
*	*	*	*	*	*	*	*	*	*	*	*v	*v	*	*	*	*	*
=57	=57	=57	=57	=57	=57	=57	=57	=57	=57	=57	=57	=57	=57	=57	=57	=57
*^	*	*	*	*	*	*	*	*	*	*	*	*	*	*	*	*
*tremolo	*tremolo	*	*tremolo	*	*tremolo	*	*tremolo	*	*	*	*	*	*	*	*	*	*
16D/LL	8D\L	.	16f#LL 16A\	.	16ddLL 16f#\	.	16dddLL 16ff#\	.	8d/L	8d\L	.	8ff#L 8a\	.	8ddd\L	.	2.r	.
16D/	.	.	16f# 16A\	.	16dd 16f#\	.	16ddd 16ff#\	.	.	.	.	.	.	.	.	.	.
16D/	8D\	.	16f# 16A\	.	16dd 16f#\	.	16ddd 16ff#\	.	16f#/L	16d\L	.	16ff#L 16a\	.	16ddd\L	.	.	.
16D/	.	.	16f# 16A\	.	16dd 16f#\	.	16ddd 16ff#\	.	16f#/J	16d\J	.	16ff#J 16a\	.	16ddd\J	.	.	.
16D/	8D\	.	16f# 16A\	.	16dd 16f#\	.	16ddd 16ff#\	.	8f#/J	8d\J	.	8ff#J 8a\	.	8ddd\J	.	.	.
16D/	.	.	16f# 16A\	.	16dd 16f#\	.	16ddd 16ff#\	.	.	.	.	.	.	.	.	.	.
16D/	8D\	.	16f# 16A\	.	16dd 16f#\	.	16ddd 16ff#\	.	8f#/L	8d\L	.	8ff#L 8a\	.	8ddd\L	.	.	.
16D/	.	.	16f# 16A\	.	16dd 16f#\	.	16ddd 16ff#\	.	.	.	.	.	.	.	.	.	.
16D/	8D\	.	16f# 16A\	.	16dd 16f#\	.	16ddd 16ff#\	.	8f#/	8d\	.	8ff# 8a\	.	8ddd\	.	.	.
16D/	.	.	16f# 16A\	.	16dd 16f#\	.	16ddd 16ff#\	.	.	.	.	.	.	.	.	.	.
16D/	8D\J	.	16f# 16A\	.	16dd 16f#\	.	16ddd 16ff#\	.	8f#/J	8d\J	.	8ff#J 8a\	.	8ddd\J	.	.	.
16D/JJ	.	.	16f#JJ 16A\	.	16ddJJ 16f#\	.	16dddJJ 16ff#\	.	.	.	.	.	.	.	.	.	.
=58	=58	=58	=58	=58	=58	=58	=58	=58	=58	=58	=58	=58	=58	=58	=58	=58	=58
*rep	*rep	*	*rep	*	*rep	*	*rep	*	*	*	*	*rep	*	*rep	*	*	*
*	*tremolo	*	*	*	*	*	*	*	*	*	*	*	*	*	*	*	*
16D/LL	8D\L	.	16f#LL 16A\	.	16ddLL 16f#\	.	16dddLL 16ff#\	.	8f#/L	8d\L	.	8ff#L 8a\	.	8ddd\L	.	2.r	.
16D/	.	.	16f# 16A\	.	16dd 16f#\	.	16ddd 16ff#\	.	.	.	.	.	.	.	.	.	.
16D/	8D\	.	16f# 16A\	.	16dd 16f#\	.	16ddd 16ff#\	.	16f#/L	16d\L	.	16ff#L 16a\	.	16ddd\L	.	.	.
16D/	.	.	16f# 16A\	.	16dd 16f#\	.	16ddd 16ff#\	.	16f#/J	16d\J	.	16ff#J 16a\	.	16ddd\J	.	.	.
16D/	8D\	.	16f# 16A\	.	16dd 16f#\	.	16ddd 16ff#\	.	8f#/J	8d\J	.	8ff#J 8a\	.	8ddd\J	.	.	.
16D/	.	.	16f# 16A\	.	16dd 16f#\	.	16ddd 16ff#\	.	.	.	.	.	.	.	.	.	.
*	*	*	*	*	*	*	*	*	*tremolo	*tremolo	*	*	*	*	*	*	*
16D/	8D\	.	16f# 16A\	.	16dd 16f#\	.	16ddd 16ff#\	.	8f#/L	8d\L	.	8ff#L 8a\	.	8ddd\L	.	.	.
16D/	.	.	16f# 16A\	.	16dd 16f#\	.	16ddd 16ff#\	.	.	.	.	.	.	.	.	.	.
16D/	8D\	.	16f# 16A\	.	16dd 16f#\	.	16ddd 16ff#\	.	8f#/	8d\	.	8ff# 8a\	.	8ddd\	.	.	.
16D/	.	.	16f# 16A\	.	16dd 16f#\	.	16ddd 16ff#\	.	.	.	.	.	.	.	.	.	.
16D/	8D\J	.	16f# 16A\	.	16dd 16f#\	.	16ddd 16ff#\	.	8f#/J	8d\J	.	8ff#J 8a\	.	8ddd\J	.	.	.
16D/JJ	.	.	16f#JJ 16A\	.	16ddJJ 16f#\	.	16dddJJ 16ff#\	.	.	.	.	.	.	.	.	.	.
*Xtremolo	*Xtremolo	*	*Xtremolo	*	*Xtremolo	*	*Xtremolo	*	*Xtremolo	*Xtremolo	*	*	*	*	*	*	*
*Xrep	*Xrep	*	*Xrep	*	*Xrep	*	*Xrep	*	*	*	*	*Xrep	*	*Xrep	*	*	*
=59	=59	=59	=59	=59	=59	=59	=59	=59	=59	=59	=59	=59	=59	=59	=59	=59	=59
8D/	8D\	.	8f# 8A\	.	8dd 8f#\	.	8ddd 8ff#\	.	8f#/	8d\	.	8ff# 8a\	.	8ddd\	.	2.r	.
8r	8ryy	.	8r	.	8r	.	8r	.	8r	8ryy	.	8r	.	8r	.	.	.
8r	8ryy	.	8r	.	8r	.	8r	.	8r	8ryy	.	8r	.	8r	.	.	.
8D/	8D\	.	8f# 8A 8D\	.	8dd 8f# 8A/	.	8ff# 8a 8d/	.	8f#/	8d\	.	8ff# 8a\	.	8fff#\	.	.	.
8r	8ryy	.	8r	.	8r	.	8r	.	8r	8ryy	.	8r	.	8r	.	.	.
8r	8ryy	.	8r	.	8r	.	8r	.	8r	8ryy	.	8r	.	8r	.	.	.
=60	=60	=60	=60	=60	=60	=60	=60	=60	=60	=60	=60	=60	=60	=60	=60	=60	=60
*	*	*	*	*	*	*	*	*	*rep	*rep	*	*rep	*	*rep	*	*	*
8D/	8D\	.	8f# 8A 8D\	.	8dd 8f# 8A/	.	8dd 8f#/	.	8f#/	8d\	.	8ff# 8a\	.	8ddd\	.	2.r	.
8r	8ryy	.	8r	.	8r	.	8r	.	8r	8ryy	.	8r	.	8r	.	.	.
8r	8ryy	.	8r	.	8r	.	8r	.	8r	8ryy	.	8r	.	8r	.	.	.
8D/	8D\	.	8f# 8A 8D\	.	8dd 8f# 8A/	.	8ff# 8a 8d/	.	8f#/	8d\	.	8ff# 8a\	.	8fff#\	.	.	.
8r	8ryy	.	8r	.	8r	.	8r	.	8r	8ryy	.	8r	.	8r	.	.	.
8r	8ryy	.	8r	.	8r	.	8r	.	8r	8ryy	.	8r	.	8r	.	.	.
*	*	*	*	*	*	*	*	*	*Xrep	*Xrep	*	*Xrep	*	*Xrep	*	*	*
*	*	*	*	*	*	*	*	*	*v	*v	*	*	*	*	*	*	*
=61	=61	=61	=61	=61	=61	=61	=61	=61	=61	=61	=61	=61	=61	=61	=61	=61
2.D;>/	2.D\	.	2.d 2.F#;>\	.	2.f# 2.A;>/	.	2.dd 2.f#;>\	.	2.f# 2.d;>\	.	2.ff# 2.a;>\	.	2.ddd;>\	.	2.r;>	.
*v	*v	*	*	*	*	*	*	*	*	*	*	*	*	*	*	*
=62	=62	=62	=62	=62	=62	=62	=62	=62	=62	=62	=62	=62	=62	=62	=62
!LO:TX:b:Bi:t=Fine	!	!	!	!	!	!	!	!	!	!	!	!	!	!	!
2.r;>	.	2.r;>	.	2.r;>	.	2.r;>	.	2.r;>	.	2.r;>	.	2.r;>	.	2.r;>	.
==	==	==	==	==	==	==	==	==	==	==	==	==	==	==	==
*-	*-	*-	*-	*-	*-	*-	*-	*-	*-	*-	*-	*-	*-	*-	*-
!!!system-decoration: [(s1,s2,s3,s4,s5,s6,s7,s8)]
!!!RDF**kern: > = above
!!!RDF**kern: < = below
!!!RDF**kern: | = vertical stroke
!!!RDF**kern: N = linked
!!!RDF**kern: i = editorial accidental
!!!EED: Wojciech Jakubiak-Danek
!!!EEV: 2021-06-09
!!!ENC: Marcin Jachim
!!!END: 2021-06-02
!!!YEC: Copyright 2022 Narodowy Instytut Fryderyka Chopina (https://polishscores.org)
!!!YEM: License CC-BY-4.0 (https://creativecommons.org/licenses/by/4.0)
